src/main/resources/icons/NodeJSIcons/META-INF/pluginIcon.svg

<svg xmlns="http://www.w3.org/2000/svg" xmlns:xlink="http://www.w3.org/1999/xlink" width="40" height="40" viewBox="0 0 40 40">
  <defs>
    <polygon id="nodejs-a" points="0 0 34 0 34 38 0 38"/>
  </defs>
  <g fill="none" fill-rule="evenodd" transform="translate(3 1)">
    <mask id="nodejs-b" fill="#fff">
      <use xlink:href="#nodejs-a"/>
    </mask>
    <path fill="#99BE4F" d="M10.3262,34.4648 C10.5292,34.3648 10.6492,34.3028 10.7732,34.2468 C11.3902,33.9698 12.0192,33.7148 12.6232,33.4088 C12.8802,33.2788 13.0702,33.2708 13.3132,33.4158 C14.3952,34.0648 15.4902,34.6918 16.5712,35.3408 C16.8592,35.5138 17.0992,35.5248 17.3982,35.3538 C21.9502,32.7418 26.5072,30.1378 31.0672,27.5408 C31.3752,27.3648 31.4892,27.1568 31.4892,26.8028 C31.4782,21.6068 31.4782,16.4098 31.4882,11.2138 C31.4892,10.8498 31.3732,10.6338 31.0502,10.4498 C26.5092,7.8668 21.9722,5.2748 17.4422,2.6738 C17.1212,2.4898 16.8692,2.4908 16.5502,2.6738 C12.0092,5.2808 7.4632,7.8788 2.9132,10.4708 C2.6192,10.6388 2.5042,10.8398 2.5052,11.1798 C2.5142,16.4008 2.5142,21.6198 2.5052,26.8408 C2.5042,27.1708 2.6222,27.3628 2.9012,27.5208 C4.0952,28.1918 5.2762,28.8808 6.4692,29.5518 C7.0722,29.8918 7.7222,30.0978 8.4232,29.9798 C9.3742,29.8188 9.9642,29.0838 9.9652,28.0908 C9.9672,24.6698 9.9652,21.2488 9.9652,17.8288 C9.9652,16.0648 9.9652,14.3008 9.9662,12.5368 C9.9662,12.0468 10.0552,11.9568 10.5462,11.9548 C11.0122,11.9528 11.4772,11.9528 11.9432,11.9548 C12.4432,11.9558 12.5492,12.0608 12.5502,12.5588 L12.5502,23.9578 C12.5502,25.4018 12.5862,26.8478 12.5322,28.2888 C12.5072,28.9518 12.3942,29.6408 12.1652,30.2608 C11.6622,31.6218 10.5752,32.2868 9.1542,32.4968 C7.6622,32.7188 6.3162,32.3078 5.0402,31.6048 C3.8832,30.9678 2.7442,30.2978 1.5952,29.6458 C0.5262,29.0398 -0.0008,28.1328 0.0002,26.9098 C0.0042,21.6308 0.0032,16.3518 0.0012,11.0718 C0.0012,9.8958 0.4982,8.9978 1.5272,8.4068 C6.1822,5.7378 10.8372,3.0668 15.5022,0.4128 C16.5122,-0.1612 17.5602,-0.1252 18.5712,0.4518 C21.8262,2.3098 25.0782,4.1748 28.3312,6.0368 C29.6632,6.7998 30.9892,7.5738 32.3292,8.3218 C33.4682,8.9578 34.0042,9.8978 34.0002,11.1948 C33.9862,16.4148 33.9882,21.6358 33.9982,26.8558 C34.0012,28.1238 33.4592,29.0428 32.3552,29.6728 C27.7652,32.2898 23.1802,34.9148 18.5942,37.5398 C17.5142,38.1578 16.4442,38.1528 15.3742,37.5248 C13.8652,36.6388 12.3542,35.7568 10.8482,34.8658 C10.6832,34.7688 10.5412,34.6318 10.3262,34.4648" mask="url(#nodejs-b)"/>
    <path fill="#99BE4F" d="M21.3135,26.9414 C19.8065,26.9034 18.3465,26.7904 16.9595,26.2384 C14.9985,25.4584 13.9105,23.9264 13.9115,21.9464 C13.9115,21.5154 14.0175,21.4084 14.4615,21.4064 C14.9755,21.4044 15.4895,21.4174 16.0025,21.4014 C16.3295,21.3914 16.4915,21.5374 16.5405,21.8404 C16.5565,21.9454 16.5755,22.0504 16.5955,22.1544 C16.8165,23.2904 17.5245,23.9814 18.6385,24.2264 C20.3615,24.6034 22.0995,24.6184 23.8255,24.2394 C24.5695,24.0764 25.2155,23.7274 25.4665,22.9244 C25.7705,21.9554 25.5045,21.2804 24.5295,20.9934 C23.5185,20.6964 22.4685,20.5044 21.4225,20.3564 C19.9375,20.1444 18.4295,20.0714 16.9995,19.5644 C15.6065,19.0714 14.6145,18.2104 14.4275,16.6814 C14.2195,14.9834 14.7335,13.5714 16.2305,12.6054 C17.2465,11.9494 18.3885,11.6684 19.5785,11.5774 C21.2415,11.4504 22.8965,11.4974 24.4985,12.0364 C26.4875,12.7054 27.5765,14.1404 27.7565,16.2614 C27.7925,16.6874 27.6785,16.8004 27.2575,16.8044 C26.7325,16.8094 26.2065,16.7974 25.6805,16.8084 C25.3865,16.8144 25.2175,16.7114 25.1455,16.4114 C24.7685,14.8524 23.9285,14.1924 22.1155,14.0194 C20.9915,13.9114 19.8695,13.8884 18.7695,14.1724 C18.4095,14.2664 18.0485,14.4334 17.7415,14.6434 C17.2195,14.9994 16.9675,15.8804 17.2535,16.4264 C17.3825,16.6724 17.6665,16.9134 17.9315,17.0014 C18.5835,17.2164 19.2595,17.3754 19.9365,17.4974 C21.6245,17.8014 23.3245,18.0454 25.0065,18.3724 C25.5575,18.4794 26.0935,18.7264 26.5995,18.9814 C27.7505,19.5634 28.2575,20.5604 28.3265,21.8074 C28.4735,24.4984 26.8255,25.8854 24.6785,26.5144 C23.5695,26.8384 22.4275,26.9204 21.3135,26.9414"/>
  </g>
</svg>

<svg xmlns="http://www.w3.org/2000/svg" xmlns:xlink="http://www.w3.org/1999/xlink" width="40" height="40" viewBox="0 0 40 40"><rect id="frame" width="40" height="40" fill="none"/><defs><path id="a" d="M0 0h34v38H0z"/></defs><g fill="none" fill-rule="evenodd" transform="translate(3 1)"><mask id="b" fill="#fff"><use xlink:href="#a"/></mask><path fill="#99BE4F" d="M10.326 34.465c.203-.1.323-.162.447-.218.617-.277 1.246-.532 1.85-.838.257-.13.447-.138.69.007 1.082.649 2.177 1.276 3.258 1.925.288.173.528.184.827.013 4.552-2.612 9.11-5.216 13.67-7.813.307-.176.421-.384.421-.738-.01-5.196-.01-10.393 0-15.59 0-.363-.116-.58-.439-.763a3883.227 3883.227 0 0 1-13.608-7.776c-.32-.184-.573-.183-.892 0A4703.172 4703.172 0 0 1 2.913 10.47c-.294.168-.409.369-.408.709.01 5.22.01 10.44 0 15.66 0 .33.117.523.396.68 1.194.672 2.375 1.36 3.568 2.032.603.34 1.253.546 1.954.428.951-.161 1.541-.896 1.542-1.89.002-3.42 0-6.841 0-10.261l.001-5.292c0-.49.09-.58.58-.582.466-.002.931-.002 1.397 0 .5 0 .606.106.607.604v11.399c0 1.444.036 2.89-.018 4.33a6.474 6.474 0 0 1-.367 1.973c-.503 1.36-1.59 2.026-3.01 2.236-1.493.222-2.839-.19-4.115-.892-1.157-.637-2.296-1.307-3.445-1.96C.526 29.04 0 28.134 0 26.91c.004-5.28.003-10.558.001-15.838 0-1.176.497-2.074 1.526-2.665 4.655-2.67 9.31-5.34 13.975-7.994 1.01-.574 2.058-.538 3.07.039 3.254 1.858 6.506 3.723 9.76 5.585 1.331.763 2.657 1.537 3.997 2.285 1.14.636 1.675 1.576 1.671 2.873a3406.49 3406.49 0 0 0-.002 15.66c.003 1.269-.539 2.188-1.643 2.818-4.59 2.617-9.175 5.242-13.76 7.867-1.08.618-2.15.613-3.22-.015-1.51-.886-3.02-1.768-4.527-2.66-.165-.096-.307-.233-.522-.4" mask="url(#b)"/><path fill="#99BE4F" d="M21.314 26.941c-1.508-.038-2.968-.15-4.355-.703-1.96-.78-3.048-2.312-3.047-4.292 0-.43.105-.538.55-.54.514-.002 1.027.011 1.54-.005.328-.01.49.136.539.44.015.104.035.21.055.313.22 1.136.928 1.827 2.043 2.072 1.723.377 3.46.392 5.187.013.744-.163 1.39-.512 1.64-1.315.304-.969.038-1.644-.937-1.93-1.01-.298-2.06-.49-3.107-.638-1.485-.212-2.992-.285-4.422-.792-1.393-.493-2.386-1.354-2.572-2.883-.209-1.698.305-3.11 1.802-4.076 1.017-.656 2.159-.937 3.348-1.028 1.663-.127 3.319-.08 4.92.46 1.99.668 3.078 2.103 3.258 4.224.037.426-.078.54-.498.543-.525.005-1.052-.007-1.578.004-.293.006-.462-.097-.535-.397-.377-1.559-1.216-2.219-3.03-2.392-1.123-.108-2.245-.13-3.345.153-.36.094-.721.261-1.029.471-.521.356-.773 1.237-.488 1.783.13.246.413.487.678.575.652.215 1.328.374 2.005.496 1.689.304 3.389.548 5.07.875.552.107 1.087.354 1.593.61 1.151.581 1.659 1.578 1.727 2.825.148 2.691-1.5 4.078-3.648 4.707-1.108.324-2.25.406-3.364.427"/></g></svg>
